!!!!SEGMENT: Ror0113-Perseguendomi_Amor_al_luogo_usato.krn
!!!id: Ror0113
!!!AGN: Secular work
!!!voices: 5
!!!COM: Cipriano de Rore
!!!OTL: Perseguendomi Amor al luogo usato
**kern	**text	**kern	**text	**kern	**text	**kern	**text	**kern	**text
*part5	*part5	*part4	*part4	*part3	*part3	*part2	*part2	*part1	*part1
*staff5	*staff5	*staff4	*staff4	*staff3	*staff3	*staff2	*staff2	*staff1	*staff1
*I"Bassus	*	*I"Tenor II	*	*I"Tenor I	*	*I"Altus	*	*I"Superius	*
*I'B	*	*I'T. II	*	*I'T. I	*	*I'A	*	*I'S	*
*clefF4	*	*clefGv2	*	*clefGv2	*	*clefGv2	*	*clefG2	*
*k[b-]	*	*k[b-]	*	*k[b-]	*	*k[b-]	*	*k[b-]	*
*MM140	*	*MM140	*	*MM140	*	*MM140	*	*MM140	*
*M2/1	*	*M2/1	*	*M2/1	*	*M2/1	*	*M2/1	*
*met(C)	*	*met(C)	*	*met(C)	*	*met(C)	*	*met(C)	*
=1	=1	=1	=1	=1	=1	=1	=1	=1	=1
!!section: Perseguendomi Amor
!!!OMD: Perseguendomi Amor
0r	.	1r	.	0r	.	2F	Per-	1r	.
.	.	.	.	.	.	4G	-se-	.	.
.	.	.	.	.	.	2A	-guen-	.	.
.	.	2r	.	.	.	.	.	2f	Per-
.	.	.	.	.	.	2B-y	-do-	.	.
.	.	4r	.	.	.	.	.	4g	-se-
.	.	[4F	Per-	.	.	4c	-mi A-	[4a	-guen-
=2	=2	=2	=2	=2	=2	=2	=2	=2	=2
1r	.	4F]	.	1r	.	2d	-mor,	8aL]	.
.	.	.	.	.	.	.	.	8aJ	-do-
.	.	4G	-se-	.	.	.	.	4b-y	-mi A-
.	.	4.A	-guen-	.	.	2c	Per-	2a	-mor
.	.	8A	-do-	.	.	.	.	.	.
4D	-se-	4BnX	-mi A-	4F	Per-	4d	-se-	1r	.
4.C	-guen-	2c	-mor	4G	-se-	4.e	-guen-	.	.
.	.	.	.	4.A	-guen-	.	.	.	.
8AA	-do-	.	.	.	.	8e	-do-	.	.
4D	-mi A-	4F	al	.	.	4f	-mi A-	.	.
.	.	.	.	8A	-do-	.	.	.	.
=3	=3	=3	=3	=3	=3	=3	=3	=3	=3
8BB-yL	-mor	2.F	luo-	4B-y	-mi A-	4d	-mor	4r	.
8C	.	.	.	.	.	.	.	.	.
8D	.	.	.	2A	-mor	4d	al	2f	Per-
8EJ	.	.	.	.	.	.	.	.	.
4F	.	.	.	.	.	4c	luo-	.	.
4C	al	4E	-go u-	4c	al	4e	-go u-	4g	-se-
4F	luo-	2A	-sa-	4c	luo-	2f	-sa-	4.a	-guen-
4D	-go u-	.	.	4d	-go u-	.	.	.	.
.	.	.	.	.	.	.	.	8a	-do-
2G	-sa-	4G	-to,	2B-y	-sa-	4d	-to,	4b-y	-mi A-
.	.	4G	Per-	.	.	4d	Per-	[4g	-mor
=4	=4	=4	=4	=4	=4	=4	=4	=4	=4
4C	-to,	4E	-se-	2G	-to,	4c	-se-	4g]	.
2C	Per-	4.E	-guen-	.	.	4.c	-guen-	4g	al
.	.	.	.	2r	.	.	.	4a	luo-
.	.	8E	-do-	.	.	8c	-do-	.	.
4D	-se-	4F	-mi A-	.	.	4A	-mi A-	4a	-go u-
4.E	-guen-	4C	-mor	4r	.	2c	-mor	2g	-sa-
.	.	4c	al	4C	Per-	.	.	.	.
8E	-do-	.	.	.	.	.	.	.	.
4F	-mi A-	4A	luo-	4D	-se-	4r	.	4f	-to,
[4C	-mor	4G	-go u-	[4E	-guen-	[4c	al	4cc	Ri-
=5	=5	=5	=5	=5	=5	=5	=5	=5	=5
4C]	.	2A	-sa-	8EL]	.	4c]	.	4cc	-stret-
.	.	.	.	8EJ	-do-	.	.	.	.
4D	al	.	.	4F	-mi A-	2f	luo-	4a	-to in
4BB-y	luo-	2d	-to,	2D	-mor	.	.	2b-y	gui-
4BB-y	-go u-	.	.	.	.	4d	-go u-	.	.
2C	-sa-	4r	.	4r	.	2e-X	-sa-	2g	-sa
.	.	4G	Ri-	4C	al	.	.	.	.
4D	-to,	2B-y	-stret-	4F	luo-	2d	-to,	[2f	d’huom
4F	Ri-	.	.	4D	-go u-	.	.	.	.
=6	=6	=6	=6	=6	=6	=6	=6	=6	=6
4F	-stret-	4A	-to in	2F	-sa-	4c	Ri-	2f]	.
4D	-to in	2B-y	gui-	.	.	4d	-stret-	.	.
2E-X	gui-	.	.	4G	-to,	4B-y	-to in	2r	.
.	.	4B-y	-sa	4G	Ri-	2e-i	gui-	.	.
2C	-sa	4c	d’huom,	4G	-stret-	.	.	1r	.
.	.	4G	Ri-	4E	-to in	4c	-sa	.	.
4BB-y	d’huom,	4B-y	-stret-	2F	gui-	4d	d’huom,	.	.
4BB-y	Ri-	4B-y	-to in	.	.	4d	Ri-	.	.
=7	=7	=7	=7	=7	=7	=7	=7	=7	=7
4BB-y	-stret-	4F	gui-	2D	-sa	4d	-stret-	4r	.
4GG	-to in	4G	-sa	.	.	4BnX	-to in	4g	Ri-
4C	gui-	4E	d’huom,	4C	d’huom	2c	gui-	4g	-stret-
4C	-sa	4c	Ri-	4G	ch’a-	.	.	4e	-to in
4FF	d’huom	4c	-stret-	4F	-spet-	4A	-sa	2f	gui-
4FF	ch’a-	4A	-to in	4C	-ta	2F	d’huom	.	.
4BB-y	-spet-	2B-y	gui-	2D	guer-	.	.	2d	-sa
4GG	-ta	.	.	.	.	[4G	ch’a-	.	.
=8	=8	=8	=8	=8	=8	=8	=8	=8	=8
2C	guer-	2G	-sa	2E	-ra,	4G]	.	4c	d’huom
.	.	.	.	.	.	2c	-spet-	4g	ch’a-
2FF	-ra,	4F	d’huom	2r	.	.	.	2a	-spet-
.	.	4F	ch’a-	.	.	4c	-ta	.	.
2r	.	4B-y	-spet-	2r	.	2d	guer-	4f	-ta
.	.	4G	-ta	.	.	.	.	2g	guer-
4r	.	4.c	guer-	2C	Che	4e	-ra,	.	.
[4FF	Che	.	.	.	.	4f	Che	[4a	-ra,
.	.	8B-y	.	.	.	.	.	.	.
=9	=9	=9	=9	=9	=9	=9	=9	=9	=9
4FF]	.	4A	.	2F	si	4c	si	4a]	.
2BB-y	si	4B-y	.	.	.	2d	pro-	4f	Che
.	.	2F	-ra,	4D	pro-	.	.	2.f	si
4AA	pro-	.	.	4.A	-ve-	4.c	-ve-	.	.
2D	-ve-	2r	.	.	.	.	.	.	.
.	.	.	.	8G	.	8B-y	.	.	.
.	.	.	.	2F	.	8B-yL	.	4d	pro-
.	.	.	.	.	.	16AL	.	.	.
.	.	.	.	.	.	16B-yJJ	.	.	.
2C	-de	4r	.	.	.	2c	.	2g	-ve-
.	.	[4C	Che	4E	-de	.	.	.	.
=10	=10	=10	=10	=10	=10	=10	=10	=10	=10
1r	.	4C]	.	2r	.	4G	-de,	4e	-de,
.	.	2F	si	.	.	4A	Che	2c	Che
.	.	.	.	4r	.	4A	si	.	.
.	.	4D	pro-	2F	e i	4A	pro-	2f	si
2r	.	4.A	-ve-	.	.	2c	-ve-	.	.
.	.	.	.	2A	pas-	.	.	4e	pro-
.	.	8G	.	.	.	.	.	.	.
2FF	e i	2F	.	.	.	2c	-de	[2a	-ve-
.	.	.	.	4A	-si in-	.	.	.	.
=11	=11	=11	=11	=11	=11	=11	=11	=11	=11
4AA	pas-	1E	-de	2.c	-tor-	4r	.	2a]	.
4AA	-si in-	.	.	.	.	4c	e i	.	.
2C	-tor-	.	.	.	.	4e	pas-	2g	-de,
.	.	.	.	4c	-no	4e	-si in-	.	.
4BB-y	-no	1r	.	4.d	ser-	2f	-tor-	4r	.
4.BB-y	ser-	.	.	.	.	.	.	2d	e i
.	.	.	.	8c	.	.	.	.	.
.	.	.	.	2B-y	.	4f	-no	.	.
8C	.	.	.	.	.	.	.	.	.
[4D	.	.	.	.	.	[4d	ser-	4f	pas-
=12	=12	=12	=12	=12	=12	=12	=12	=12	=12
8DL]	.	2r	.	4.A	-ra,	4d]	.	4f	-si in-
8EJ	.	.	.	.	.	.	.	.	.
4.F	.	.	.	.	.	4c	-ra,	2a	-tor-
.	.	.	.	8B-y	.	.	.	.	.
.	.	2C	e i	2c	.	4r	.	.	.
16ELL	.	.	.	.	.	.	.	.	.
16DJ	.	.	.	.	.	.	.	.	.
8E	.	.	.	.	.	2c	e i	2g	-no
8FJ	.	.	.	.	.	.	.	.	.
2G	.	4E	pas-	4r	.	.	.	.	.
.	.	4E	-si in-	4C	e i	2G	pas-	2cc	ser-
4GG	-ra,	2G	-tor-	2D	pas-	.	.	.	.
4GG	e i	.	.	.	.	[4d	-si in-	4b-y	-ra,
=13	=13	=13	=13	=13	=13	=13	=13	=13	=13
4BB-y	pas-	4F	-no	4D	-si in-	4d]	.	4r	.
4BB-y	-si in-	4.F	ser-	4.D	-tor-	2f	-tor-	2b-y	e i
2D	-tor-	.	.	.	.	.	.	.	.
.	.	8G	.	8E	.	.	.	.	.
.	.	4.A	.	2F	.	4F	-no	2a	pas-
2C	-no	.	.	.	.	2c	ser-	.	.
.	.	8B-y	.	.	.	.	.	.	.
.	.	4.c	.	4E-X	-no	.	.	4g	-si in-
2F	ser-	.	.	2D	ser-	2d	-ra,	4f	-tor-
.	.	16BnXLL	.	.	.	.	.	.	.
.	.	16AJJ	.	.	.	.	.	.	.
.	.	4Bni	.	.	.	.	.	4d	-no
=14	=14	=14	=14	=14	=14	=14	=14	=14	=14
4.E	-ra,	4c	-ra,	4C	-ra,	4r	.	2g	ser-
.	.	2c	Di	2C	Di	4G	Di	.	.
8F	.	.	.	.	.	.	.	.	.
2G	.	.	.	.	.	4G	miei an-	2e	-ra,
.	.	4G	miei an-	4C	miei an-	2c	-ti-	.	.
2r	.	4A	-ti-	2F	-ti-	.	.	1r	.
.	.	4A	-chi	.	.	4d	-chi	.	.
4r	.	4BnX	pen-	4G	-chi	4d	pen-	.	.
4C	Di	[4c	-sier	4G	pen-	[4e	-sier	.	.
=15	=15	=15	=15	=15	=15	=15	=15	=15	=15
4C	miei an-	4c]	.	2A	-sier	4e]	.	2c	Di
2AA	-ti-	2C	mi	.	.	4e	mi	.	.
.	.	.	.	2F	mi	4f	sta-	4c	miei an-
4BB-y	-chi	4D	sta-	.	.	4f	-va ar-	2f	-ti-
4BB-y	pen-	4D	-va ar-	2B-y	sta-	4.d	-ma-	.	.
2GG	-sier,	4.D	-ma-	.	.	.	.	4g	-chi
.	.	.	.	.	.	8c	.	.	.
.	.	.	.	4G	-va ar-	4B-y	.	4g	pen-
.	.	8EL	.	.	.	.	.	.	.
[4FF	Di	8F	.	[4c	-ma-	4A	-to,	[4a	-sier
.	.	8GJ	.	.	.	.	.	.	.
=16	=16	=16	=16	=16	=16	=16	=16	=16	=16
4FF]	.	2A	.	8cL]	.	4r	.	4a]	.
.	.	.	.	8B-y	.	.	.	.	.
4FF	miei an-	.	.	8A	.	4c	Di	4a	mi
.	.	.	.	8GJ	.	.	.	.	.
2BB-y	-ti-	4D	-to,	2F	.	2d	miei an-	2b-y	sta-
.	.	4D	Di	.	.	.	.	.	.
4C	-chi	2G	miei an-	2E	-to,	2e	-ti-	4g	-va ar-
4C	pen-	.	.	.	.	.	.	4.cc	-ma-
4AA	-sier	2A	-ti-	2r	.	4e	-chi	.	.
.	.	.	.	.	.	.	.	8b-y	.
4D	mi	.	.	.	.	4f	pen-	[4a	.
=17	=17	=17	=17	=17	=17	=17	=17	=17	=17
4.F	sta-	4A	-chi	4r	.	4c	-sier	8aL]	.
.	.	.	.	.	.	.	.	8gJ	.
.	.	4A	pen-	4D	mi	4d	mi	4.f	.
8E	.	.	.	.	.	.	.	.	.
4.D	.	4F	-sier	4A	sta-	4.f	sta-	.	.
.	.	.	.	.	.	.	.	8e	.
.	.	4A	mi	4F	-va ar-	.	.	4.d	.
8C	.	.	.	.	.	8e	.	.	.
4BB-y	.	4B-y	sta-	2F	-ma-	4d	.	.	.
.	.	.	.	.	.	.	.	8e	.
4FF	-va ar-	4A	-va ar-	.	.	4c	-va ar-	4.f	.
2C	-ma-	2G	-ma-	4C	-to.	2c	-ma-	.	.
.	.	.	.	.	.	.	.	8e	.
.	.	.	.	[4c	Vol-	.	.	4e	.
=18	=18	=18	=18	=18	=18	=18	=18	=18	=18
2FF	-to.	1F	-to.	4c]	.	2A	-to.	4f	-to.
.	.	.	.	4A	-si-	.	.	2cc	Vol-
4r	.	.	.	2A	-mi,	4r	.	.	.
2F	Vol-	.	.	.	.	2c	Vol-	4a	-si-
.	.	4r	.	4r	.	.	.	1a	-mi,
4D	-si-	2A	Vol-	4F	et	4d	-si-	.	.
2D	-mi,	.	.	4F	vi-	4d	-mi,	.	.
.	.	4A	-si-	4D	-di un’	[4f	Vol-	.	.
=19	=19	=19	=19	=19	=19	=19	=19	=19	=19
2r	.	1c	-mi,	2A	om-	4f]	.	0r	.
.	.	.	.	.	.	4e	-si-	.	.
4r	.	.	.	4A	-bra,	1e	-mi,	.	.
4C	et	.	.	2G	che	.	.	.	.
4C	vi-	4r	.	.	.	.	.	.	.
4AA	-di un’	4c	et	4A	da	.	.	.	.
2D	om-	4A	vi-	2F	la-	4r	.	.	.
.	.	4A	-di un’	.	.	4f	et	.	.
=20	=20	=20	=20	=20	=20	=20	=20	=20	=20
4BB-y	-bra	2.d	om-	4F	-to	4f	vi-	0r	.
4.BB-y	che	.	.	4F	Stam-	4d	-di un’	.	.
.	.	.	.	2B-y	-pa-	2.f	om-	.	.
8CL	.	.	.	.	.	.	.	.	.
8D	.	4d	-bra	.	.	.	.	.	.
8EJ	.	.	.	.	.	.	.	.	.
4F	.	2c	che	4A	-va il	.	.	.	.
4C	da	.	.	2G	so-	4e	-bra	.	.
2D	la-	4B-y	da	.	.	4r	.	.	.
.	.	[4A	la-	4F	-le,	[4f	che	.	.
=21	=21	=21	=21	=21	=21	=21	=21	=21	=21
4C	-to	4A]	.	4r	.	4f]	.	0r	.
4C	Stam-	4G	-to	2c	che	4e	da	.	.
4.G	-pa-	4r	.	.	.	2d	la-	.	.
.	.	2G	Stam-	4BnX	da	.	.	.	.
8F	.	.	.	.	.	.	.	.	.
4E	.	.	.	2c	la-	4c	-to	.	.
4F	-va il	2c	-pa-	.	.	4A	Stam-	.	.
2D	so-	.	.	4F	-to	4d	-pa-	.	.
.	.	4BnXi	-va il	4F	Stam-	4d	-va il	.	.
=22	=22	=22	=22	=22	=22	=22	=22	=22	=22
2C	-le,	2c	so-	4G	-pa-	2e	so-	1r	.
.	.	.	.	4G	-va il	.	.	.	.
2.C	Vol-	4c	-le,	2G	so-	2e	-le,	.	.
.	.	2G	Vol-	.	.	.	.	.	.
.	.	.	.	2E	-le,	4r	.	2r	.
4AA	-si-	4A	-si-	.	.	2c	Vol-	.	.
2AA	-mi,	[2c	-mi,	2F	Vol-	.	.	[2cc	Vol-
.	.	.	.	.	.	4A	-si-	.	.
=23	=23	=23	=23	=23	=23	=23	=23	=23	=23
4r	.	2c]	.	4F	-si-	4.A	-mi,	4cc]	.
4AA	et	.	.	4.E	-mi,	.	.	4a	-si-
.	.	.	.	.	.	8B-y	.	.	.
4AA	vi-	4r	.	.	.	1c	.	2a	-mi,
.	.	.	.	16DLL	.	.	.	.	.
.	.	.	.	16EJJ	.	.	.	.	.
4FF	-di un’	4c	et	4F	.	.	.	.	.
2F	om-	4A	vi-	4r	.	.	.	4r	.
.	.	4A	-di un’	4F	et	.	.	4f	et
4D	-bra	2d	om-	4A	vi-	4r	.	2f	vi-
[4BB-y	che	.	.	4B-y	-di un’	4f	et	.	.
=24	=24	=24	=24	=24	=24	=24	=24	=24	=24
4BB-]	.	4B-y	-bra	4.F	om-	2f	vi-	4d	-di un’
4D	da	4.F	che	.	.	.	.	2a	om-
.	.	.	.	8G	.	.	.	.	.
2F	la-	.	.	8AL	.	4c	-di un’	.	.
.	.	8GL	.	8B-yJ	.	.	.	.	.
.	.	8A	.	2c	.	2f	om-	4a	-bra
.	.	8B-yJ	.	.	.	.	.	.	.
4C	-to	4c	.	.	.	.	.	2g	che
4C	Stam-	4c	da	4C	-bra	4e	-bra	.	.
4FF	-pa-	2A	la-	4C	che	4f	che	4a	da
4FF	-va il	.	.	4F	da	4c	da	[4f	la-
=25	=25	=25	=25	=25	=25	=25	=25	=25	=25
2BB-y	so-	4F	-to	2D	la-	2d	la-	4f]	.
.	.	2B-y	Stam-	.	.	.	.	4f	-to
2GG	-le,	.	.	4D	-to	4d	-to	4g	Stam-
.	.	2G	-pa-	4D	Stam-	2d	Stam-	2b-y	-pa-
1r	.	.	.	4G	-pa-	.	.	.	.
.	.	4c	-va il	4F	-va il	2f	-pa-	4a	-va il
.	.	[2c	so-	2C	so-	.	.	2g	so-
.	.	.	.	.	.	4e	-va il	.	.
=26	=26	=26	=26	=26	=26	=26	=26	=26	=26
4r	.	2c]	.	2F	-le,	2f	so-	2a	-le,
4FF	et	.	.	.	.	.	.	.	.
2BB-y	ri-	1.d	-le,	4r	.	2f	-le,	4r	.
.	.	.	.	4D	et	.	.	4f	et
4GG	-co-	.	.	4G	ri-	4r	.	4b-y	ri-
2D	-nob-	.	.	4F	-co-	4d	et	4b-y	-co-
.	.	.	.	4F	-nob-	4f	ri-	2a	-nob-
4D	-bi in	.	.	4D	-bi in	4f	-co-	.	.
=27	=27	=27	=27	=27	=27	=27	=27	=27	=27
4F	ter-	2r	.	4A	ter-	4c	-nob-	4a	-bi in
4C	-ra	.	.	4G	-ra	4e-X	-bi in	4cc	ter-
2D	Quel-	4r	.	2F	Quel-	4d	ter-	4b-y	-ra
.	.	4A	et	.	.	4d	-ra	4.a	Quel-
4GG	-la,	4B-y	ri-	4D	-la,	2d	Quel-	.	.
.	.	.	.	.	.	.	.	8g	.
4GG	et	4B-y	-co-	4D	et	.	.	4g	.
4D	ri-	2A	-nob-	4F	ri-	4d	-la,	[2a	-la
4D	-co-	.	.	4F	-co-	4d	et	.	.
=28	=28	=28	=28	=28	=28	=28	=28	=28	=28
4.AA	-no-	4A	-bi in	2.E	-nob-	2c	ri-	2a]	.
.	.	2c	ter-	.	.	.	.	.	.
8BB-y	.	.	.	.	.	.	.	.	.
4C	.	.	.	.	.	4G	-co-	2r	.
4GG	-bi in	2B-y	-ra	4G	-bi in	2d	-nob-	.	.
4D	ter-	.	.	4F	ter-	.	.	1r	.
4AA	-ra	4.A	Quel-	4E	-ra	4c#X	-bi in	.	.
2BB-y	Quel-	.	.	2D	Quel-	4d	ter-	.	.
.	.	8G	.	.	.	.	.	.	.
.	.	4G	.	.	.	4d	-ra	.	.
=29	=29	=29	=29	=29	=29	=29	=29	=29	=29
2AA	-la	2A	-la	4E	-la	2c#i	Quel-	4r	.
.	.	.	.	4E	che,	.	.	4a	che,
4r	.	2r	.	4G	se ’l	4d	-la	4b-y	se ’l
4GG	che,	.	.	4G	giu-	4d	che,	4b-y	giu-
4D	se ’l	1r	.	4F	-di-	4f	se ’l	2a	-di-
4D	giu-	.	.	4D	-cio	4f	giu-	.	.
2F	-di-	.	.	2A	mio	2cnXi	-di-	4a	-cio
.	.	.	.	.	.	.	.	[4cc	mio
=30	=30	=30	=30	=30	=30	=30	=30	=30	=30
4C	-cio	2r	.	2G	non	4e-X	-cio	4cc]	.
2G	mio	.	.	.	.	2d	mio	2b-y	non
.	.	4r	.	2d	er-	.	.	.	.
4D	non	4A	che,	.	.	4f	non	4.a	er-
2G	er-	4B-y	se ’l	4d	-ra,	4.d	er-	.	.
.	.	.	.	.	.	.	.	8g	.
.	.	4B-y	giu-	4G	che,	.	.	4g	.
.	.	.	.	.	.	8enX	.	.	.
4F	-ra,	2A	-di-	4c	se ’l	2f	.	[2a	-ra,
[4FF	se ’l	.	.	4c	giu-	.	.	.	.
=31	=31	=31	=31	=31	=31	=31	=31	=31	=31
4FF]	.	4A	-cio	2A	-di-	4c	-ra,	2a]	.
4FF	giu-	2c	mio	.	.	4c	se ’l	.	.
4C	-di-	.	.	2G	-cio	4e-X	giu-	2r	.
4GG	-cio	2B-y	non	.	.	2d	-di-	.	.
4D	mio	.	.	4F	mio	.	.	1r	.
4D	non	4.A	er-	4F	non	4d	-cio	.	.
2BB-y	er-	.	.	4.D	er-	4d	mio	.	.
.	.	8G	.	.	.	.	.	.	.
.	.	4G	.	.	.	4d	non	.	.
.	.	.	.	8E	.	.	.	.	.
=32	=32	=32	=32	=32	=32	=32	=32	=32	=32
2AA	-ra,	2A	-ra,	1F	.	2c	er-	4r	.
.	.	.	.	.	.	.	.	4a	E-
4r	.	2r	.	.	.	2A	-ra,	4cc	-ra
4AA	E-	.	.	.	.	.	.	4cc	più
4C	-ra	2G	E-	1E	-ra,	2r	.	2cc	de-
4C	più	.	.	.	.	.	.	.	.
2C	de-	4G	-ra	.	.	4r	.	4g	-gna
.	.	4G	più	.	.	4c	E-	[4g	d’im-
=33	=33	=33	=33	=33	=33	=33	=33	=33	=33
2GG	-gna	2B-y	de-	4r	.	4d	-ra	4g]	.
.	.	.	.	4D	E-	4d	più	4b-y	-mor-
4r	.	2F	-gna	4D	-ra	2f	de-	4a	-ta-
2D	d’im-	.	.	4D	più	.	.	4a	-le
.	.	2A	d’im-	2F	de-	4f	-gna	2a	sta-
4F	-mor-	.	.	.	.	2c	d’im-	.	.
4E-X	-ta-	2c	-mor-	4C	-gna	.	.	2g	-to,
4C	-le	.	.	[4G	d’im-	4e-X	-mor-	.	.
=34	=34	=34	=34	=34	=34	=34	=34	=34	=34
2G	sta-	4B-y	-ta-	4G]	.	4d	-ta-	2r	.
.	.	4G	-le	4B-y	-mor-	4d	-le	.	.
4D	-to,	2A	sta-	4A	-ta-	1d	sta-	2.f	E-
4D	E-	.	.	4F	-le	.	.	.	.
4D	-ra	2F	-to,	1A	sta-	.	.	.	.
4D	piú	.	.	.	.	.	.	2a	-ra
2F	de-	2r	.	.	.	[2c	-to,	.	.
.	.	.	.	.	.	.	.	4a	più
=35	=35	=35	=35	=35	=35	=35	=35	=35	=35
4C	-gna	2E	E-	4G	-to,	2c]	.	2cc	de-
2C	d’im-	.	.	2G	d’im-	.	.	.	.
.	.	4E	-ra	.	.	4r	.	4g	-gna
4C	-mor-	4E	più	4G	-mor-	4c	E-	2g	d’im-
4BB-y	-ta-	2G	de-	2D	-ta-	4d	-ra	.	.
4GG	-le	.	.	.	.	4d	più	4b-y	-mor-
2D	sta-	4F	-gna,	4D	-le	2f	de-	4a	-ta-
.	.	4A	E-	[4F	sta-	.	.	4f	-le
=36	=36	=36	=36	=36	=36	=36	=36	=36	=36
4AA	-to,	4A	-ra	4F]	.	4c	-gna	1a	sta-
4AA	E-	4A	più	2E	-to,	2c	d’im-	.	.
4AA	-ra	2.c	de-	.	.	.	.	.	.
4AA	più	.	.	4E	E-	4c	-mor-	.	.
1C	de-	.	.	4E	-ra	2c	-ta-	4g	-to,
.	.	4G	-gna	4E	più	.	.	2g	d’im-
.	.	4r	.	2E	de-	2c	-le	.	.
.	.	[4G	d’im-	.	.	.	.	4cc	-mor-
=37	=37	=37	=37	=37	=37	=37	=37	=37	=37
2GG	-gna	4G]	.	4G	-gna,	2d	sta-	4b-y	-ta-
.	.	4B-y	-mor-	4D	E-	.	.	4g	-le
2r	.	4A	-ta-	4F	-ra	4c	-to,	4.a	sta-
.	.	4F	-le	4F	più	4c	E-	.	.
.	.	.	.	.	.	.	.	8g	.
1r	.	2A	sta-	2F	de-	4c	-ra	8fL	.
.	.	.	.	.	.	.	.	8eJ	.
.	.	.	.	.	.	4c	più	4.f	.
.	.	2G	-to,	4C	-gna	2c	de-	.	.
.	.	.	.	.	.	.	.	8e	.
.	.	.	.	4C	d’im-	.	.	4e	.
=38	=38	=38	=38	=38	=38	=38	=38	=38	=38
2.FF	d’im-	4r	.	4F	-mor-	4A	-gna	[0fl	-to.
.	.	4A	d’im-	2F	-ta-	2c	d’im-	.	.
.	.	4A	-mor-	.	.	.	.	.	.
4BB-y	-mor-	2F	-ta-	4D	-le	4d	-mor-	.	.
4AA	-ta-	.	.	2A	sta-	4c	-ta-	.	.
4AA	-le	4c	-le	.	.	4A	-le	.	.
2BB-y	sta-	2B-y	sta-	4.D	-to.	2d	sta-	.	.
.	.	.	.	8E	.	.	.	.	.
=39	=39	=39	=39	=39	=39	=39	=39	=39	=39
0FFl	-to.	0Al	-to.	0Fl	.	0cl	-to.	0f]	.
=40||	=40||	=40||	=40||	=40||	=40||	=40||	=40||	=40||	=40||
*M2/1	*	*M2/1	*	*M2/1	*	*M2/1	*	*M2/1	*
*met(C)	*	*met(C)	*	*met(C)	*	*met(C)	*	*met(C)	*
!!section: Io dicea
!!!OMD: Io dicea
2.C	Io	4r	.	2G	Io	2e	Io	0r	.
.	.	2c	Io	.	.	.	.	.	.
.	.	.	.	4G	di-	4e	di-	.	.
4D	di-	4A	di-	4F	-cea	2f	-cea	.	.
4D	-cea	2F	-cea	4A	fra	.	.	.	.
2BB-y	fra	.	.	4B-y	mio	2d	fra	.	.
.	.	4B-y	fra	2G	cor,	.	.	.	.
4C	mio	4G	mio	.	.	4e	mio	.	.
=41	=41	=41	=41	=41	=41	=41	=41	=41	=41
1FF	cor:	4A	cor,	2c	Io	4f	cor,	1r	.
.	.	4A	Io	.	.	4c	Io	.	.
.	.	2c	di-	4A	di-	4c	di-	.	.
.	.	.	.	4F	-cea	2f	-cea	.	.
2r	.	4d	-cea	2B-y	fra	.	.	4f	-cea
.	.	2d	fra	.	.	2f	fra	2b-y	fra
4r	.	.	.	2G	mio	.	.	.	.
4C	per-	4c	mio	.	.	4e	mio	4g	mio
=42	=42	=42	=42	=42	=42	=42	=42	=42	=42
4.F	-ché	2c	cor:	4F	cor:	4f	cor:	1a	cor:
.	.	.	.	4c	per-	4f	per-	.	.
8G	.	.	.	.	.	.	.	.	.
4A	.	4r	.	4c	-ché	4e	-ché	.	.
4D	pa-	4d	per-	4A	pa-	4f	pa-	.	.
2G	-ven-	4d	-ché	2B-y	-ven-	4.d	-ven-	2r	.
.	.	4G	pa-	.	.	.	.	.	.
.	.	.	.	.	.	8e	.	.	.
2F	-ti,	2c	-ven-	2A	-ti,	2f	.	4r	.
.	.	.	.	.	.	.	.	4cc	per-
=43	=43	=43	=43	=43	=43	=43	=43	=43	=43
2r	.	4A	-ti,	4r	.	4f	-ti,	4cc	-ché
.	.	4d	per-	4D	per-	4F	per-	4a	pa-
4r	.	2.d	-ché	2G	-ché	4.B-y	-ché	2b-y	-ven-
4G	per-	.	.	.	.	.	.	.	.
.	.	.	.	.	.	8c	.	.	.
4F	-ché	.	.	4D	pa-	4d	.	1a	-ti?
4F	pa-	4A	pa-	4.F	-ven-	4c	pa-	.	.
2D	-ven-	2d	-ven-	.	.	2f	-ven-	.	.
.	.	.	.	8G	.	.	.	.	.
.	.	.	.	[4A	.	.	.	.	.
=44	=44	=44	=44	=44	=44	=44	=44	=44	=44
1AA	-ti?	4c#X	-ti?	4A]	.	1e	-ti?	4r	.
.	.	4c#i	Ma	4A	-ti?	.	.	2a	Ma
.	.	4c#i	non	4r	.	.	.	.	.
.	.	4c#i	fu	4A	Ma	.	.	4a	non
1r	.	2.d	pri-	4F	non	4r	.	2a	fu
.	.	.	.	4D	fu	4f	Ma	.	.
.	.	.	.	4G	pri-	4d	non	2b-y	pri-
.	.	4G	-ma	4G	-ma	4e	fu	.	.
=45	=45	=45	=45	=45	=45	=45	=45	=45	=45
0r	.	2c	den-	8FL	den-	4f	pri-	2a	-ma
.	.	.	.	8G	.	.	.	.	.
.	.	.	.	8A	.	4c	-ma	.	.
.	.	.	.	8B-yJ	.	.	.	.	.
.	.	4c	-tro il	4c	.	4e-X	den-	2g	den-
.	.	4B-y	pen-	4G	-tro il	4d	-tro il	.	.
.	.	4G	-sier	4B-y	pen-	4d	pen-	4g	-tro il
.	.	4.c	giun-	4A	-sier	4c	-sier	4f#X	pen-
.	.	.	.	2G	giun-	4.d	giun-	2g	-sier
.	.	8BnXi	.	.	.	.	.	.	.
.	.	4BnXi	.	.	.	.	.	.	.
.	.	.	.	.	.	8enX	.	.	.
=46	=46	=46	=46	=46	=46	=46	=46	=46	=46
1r	.	4c	-to,	4F	-to,	4f	.	2a	giun-
.	.	4c	Ma	2F	Ma	4f	-to,	.	.
.	.	4A	non	.	.	4r	.	2a	-to
.	.	4F	fu	4F	non	4d	Ma	.	.
4BB-y	non	4B-y	pri-	4D	fu	4d	non	1r	.
4GG	fu	4B-y	-ma	2G	pri-	4d	fu	.	.
4C	pri-	4G	den-	.	.	2e-X	pri-	.	.
4C	-ma	4A	-tro il	4C	-ma	.	.	.	.
=47	=47	=47	=47	=47	=47	=47	=47	=47	=47
8BB-yL	den-	2B-y	pen-	2.F	den-	2d	-ma	1r	.
8C	.	.	.	.	.	.	.	.	.
8D	.	.	.	.	.	.	.	.	.
8EJ	.	.	.	.	.	.	.	.	.
4F	.	4A	-sier	.	.	2c	den-	.	.
4C	-tro il	2G	giun-	4E-X	-tro il	.	.	.	.
4E-X	pen-	.	.	4C	pen-	4c	-tro il	2r	.
4D	-sier	4F	.	4D	-sier	4BnX	pen-	.	.
2C	giun-	2G	-to	2EnX	giun-	2c	-sier	4r	.
.	.	.	.	.	.	.	.	4g	Che i
=48	=48	=48	=48	=48	=48	=48	=48	=48	=48
2BB-y	-to	2r	.	4F	-to	2d	giun-	1b-y	rag-
.	.	.	.	4F	Che i	.	.	.	.
4r	.	4r	.	2G	rag-	2d	-to	.	.
4GG	Che i	4D	Che i	.	.	.	.	.	.
1D	rag-	2F	rag-	4A	-gi,	4r	.	1a	-gi,
.	.	.	.	4A	Che i	4d	Che i	.	.
.	.	4D	-gi,	[2d	rag-	[2f	rag-	.	.
.	.	4A	Che i	.	.	.	.	.	.
=49	=49	=49	=49	=49	=49	=49	=49	=49	=49
2AA	-gi,	1A	rag-	2d]	.	2f]	.	2r	.
2r	.	.	.	2c#X	-gi,	2e	-gi,	2a	ov’
2D	ov’	2F#X	-gi,	4r	.	4r	.	4a	io
.	.	.	.	2d	ov’	4A	Che i	4a	mi
4BB-y	io	4r	.	.	.	[2B-y	rag-	2g	strug-
4GG	mi	4d	ov’	[4D	io	.	.	.	.
=50	=50	=50	=50	=50	=50	=50	=50	=50	=50
2BB-y	strug-	4d	io	4D]	.	2B-]	.	2f	-go,
.	.	4d	mi	4D	mi	.	.	.	.
2FF	-go,	2c	strug-	4.F	strug-	2A	-gi,	4r	.
.	.	.	.	.	.	.	.	4f	e-
.	.	.	.	16ELL	.	.	.	.	.
.	.	.	.	16FJJ	.	.	.	.	.
4r	.	1B-y	-go,	4G	.	4r	.	4d	-ran
4GG	Che i	.	.	4D	-go,	4d	ov’	4g	pre-
2BB-y	rag-	.	.	4r	.	4d	io	4.f	-sen-
.	.	.	.	4D	Che i	4d	mi	.	.
.	.	.	.	.	.	.	.	8g	.
=51	=51	=51	=51	=51	=51	=51	=51	=51	=51
4AA	-gi,	2r	.	4.F	rag-	2.c	strug-	8aL	.
.	.	.	.	.	.	.	.	8b-yJ	.
4A	ov’	.	.	.	.	.	.	4.cc	.
.	.	.	.	8E	.	.	.	.	.
4A	io	4r	.	8FL	.	.	.	.	.
.	.	.	.	8GJ	.	.	.	8b-y	.
4F#X	mi	4D	Che i	4A	-gi,	4.d	-go,	4.a	.
2G	strug-	2B-y	rag-	4r	.	.	.	.	.
.	.	.	.	.	.	8cL	.	8g	.
.	.	.	.	4d	ov’	8d	.	4g	.
.	.	.	.	.	.	8eJ	.	.	.
[2D	-go,	2A	-gi,	[2d	io	4f	.	4a	-ti,
.	.	.	.	.	.	4f	Che i	[4a	ov’
=52	=52	=52	=52	=52	=52	=52	=52	=52	=52
2D]	.	4r	.	4d]	.	2f	rag-	4a]	.
.	.	4A	ov’	4d	mi	.	.	4a	io
4r	.	4A	io	2.c	strug-	2e	-gi,	4a	mi
4AA	e-	4A	mi	.	.	.	.	4.e	strug-
4C	-ran	2G	strug-	.	.	4r	.	.	.
.	.	.	.	.	.	.	.	8f	.
4GG	pre-	.	.	4B-y	-go,	4d	ov’	4g	.
4.D	-sen-	2F	-go,	4r	.	4d	io	2a	-go,
.	.	.	.	4A	e-	4d	mi	.	.
8E	.	.	.	.	.	.	.	.	.
=53	=53	=53	=53	=53	=53	=53	=53	=53	=53
8FL	.	4r	.	4A	-ran	2c	strug-	4r	.
8GJ	.	.	.	.	.	.	.	.	.
2A	.	4F	e-	4A	pre-	.	.	4a	e-
.	.	4D	-ran	2d	-sen-	2B-y	-go,	4f	-ran
4G	.	4G	pre-	.	.	.	.	4b-y	pre-
4A	-ti,	4.F	-sen-	2D	-ti,	4r	.	2a	-sen-
4.D	e-	.	.	.	.	2f	e-	.	.
.	.	8G	.	.	.	.	.	.	.
.	.	8AL	.	4r	.	.	.	2a	-ti.
8C	.	8B-yJ	.	.	.	.	.	.	.
4AA	.	[4c	.	4A	e-	4e	-ran	.	.
=54	=54	=54	=54	=54	=54	=54	=54	=54	=54
4C	-ran	8cL]	.	4A	-ran	4e	pre-	1r	.
.	.	8B-yJ	.	.	.	.	.	.	.
4D	pre-	4.A	.	4F	pre-	4.f	-sen-	.	.
2BB-y	-sen-	.	.	4.D	-sen-	.	.	.	.
.	.	8G	.	.	.	8e	.	.	.
.	.	4G	.	.	.	4d	.	.	.
.	.	.	.	8E	.	.	.	.	.
4.AA	-ti.	4A	-ti.	8FL	.	[1c	-ti.	4r	.
.	.	.	.	8EJ	.	.	.	.	.
.	.	2c	Co-	4A	.	.	.	2f	Co-
8BB-y	.	.	.	.	.	.	.	.	.
2C	.	.	.	2G	-ti.	.	.	.	.
.	.	4G	-me	.	.	.	.	4e	-me
=55	=55	=55	=55	=55	=55	=55	=55	=55	=55
2FF	Co-	2A	col	4r	.	2c]	.	4f	col
.	.	.	.	2F	Co-	.	.	4.a	ba-
4FF	-me	4.c	ba-	.	.	2r	.	.	.
.	.	.	.	.	.	.	.	8a	-le-
4C	col	.	.	4E	-me	.	.	4g	-nar
.	.	8c	-le-	.	.	.	.	.	.
4.FF	ba-	4c	-nar,	4F	col	2c	Co-	2cc	to-
.	.	2F	Co-	4.A	ba-	.	.	.	.
8FF	-le-	.	.	.	.	.	.	.	.
2C	-nar,	.	.	.	.	4c	-me	4cc	-na in
.	.	.	.	8A	-le-	.	.	.	.
.	.	4E	-me	4G	-nar	[4c	col	4cc	un
=56	=56	=56	=56	=56	=56	=56	=56	=56	=56
4r	.	4F	col	2.A	to-	4c]	.	4.a	pun-
2F	Co-	4.D	ba-	.	.	2d	ba-	.	.
.	.	.	.	.	.	.	.	8g	.
.	.	.	.	.	.	.	.	8aL	.
.	.	8D	-le-	.	.	.	.	8fJ	.
4E	-me	4C	-nar	4c	-na in	4G	-le-	4g	.
4F	col	2c	to-	4c	un	4A	-nar,	2f	-to,
4.A	ba-	.	.	2F	pun-	2f	Co-	.	.
.	.	4c	-na in	.	.	.	.	4r	.
8A	-le-	.	.	.	.	.	.	.	.
4G	-nar	4c	un	4C	-to,	4e	-me	[4c	Co-
=57	=57	=57	=57	=57	=57	=57	=57	=57	=57
1F	to-	2A	pun-	4r	.	4f	col	4c]	.
.	.	.	.	2D	to-	4.d	ba-	4f	-me
.	.	4A	-to,	.	.	.	.	4d	col
.	.	.	.	.	.	8d	-le-	.	.
.	.	2A	to-	2F	-na in	4c	-nar	4.a	ba-
4D	-na in	.	.	.	.	2d	to-	.	.
.	.	.	.	.	.	.	.	8a	-le-
4D	un	4A	-na in	4F	un	.	.	4f	-nar
2BB-y	pun-	8DL	un	[2F	pun-	4d	-na in	2b-y	to-
.	.	8E	.	.	.	.	.	.	.
.	.	8F	.	.	.	4d	un	.	.
.	.	8GJ	.	.	.	.	.	.	.
=58	=58	=58	=58	=58	=58	=58	=58	=58	=58
2FF	-to,	4A	.	2F]	.	1c	pun-	4a	-na in
.	.	4.F	pun-	.	.	.	.	4a	un
4r	.	.	.	2C	-to,	.	.	2g	pun-
.	.	8E	.	.	.	.	.	.	.
4C	Co-	4E	.	.	.	.	.	.	.
2D	-sì	4F	-to,	1r	.	4.A	-to,	2f	-to,
.	.	4F	Co-	.	.	.	.	.	.
.	.	.	.	.	.	8B-y	.	.	.
4E	fu	4G	-sì	.	.	[2c	.	2r	.
[4F	io	4A	fu	.	.	.	.	.	.
=59	=59	=59	=59	=59	=59	=59	=59	=59	=59
8FL]	.	2G	io	2C	Co-	2c]	.	0r	.
8EJ	.	.	.	.	.	.	.	.	.
8EL	.	.	.	.	.	.	.	.	.
16DL	.	.	.	.	.	.	.	.	.
16EJJ	.	.	.	.	.	.	.	.	.
4F	.	4r	.	4D	-sì	2r	.	.	.
4C	de	4G	Co-	2E	fu	.	.	.	.
4C	be-	4A	-sì	.	.	4r	.	.	.
4D	-gli oc-	4BnX	fu	2F	io	4F	Co-	.	.
4C	-chi	4c	io	.	.	4G	-sì	.	.
4C	lu-	4c	de	4E	de	4A	fu	.	.
=60	=60	=60	=60	=60	=60	=60	=60	=60	=60
2BB-y	-cen-	4d	be-	4F	be-	4B-y	io	0r	.
.	.	2d	-gli oc-	2G	-gli oc-	2B-y	de	.	.
4GG	-ti,	.	.	.	.	.	.	.	.
4C	Co-	4.c	-chi	2E	-chi	4G	be-	.	.
4C	-sí	.	.	.	.	2A	-gli oc-	.	.
.	.	8B-yL	.	.	.	.	.	.	.
2D	fu	8A	.	4F	lu-	.	.	.	.
.	.	8GJ	.	.	.	.	.	.	.
.	.	4F	.	2D	-cen-	4A	-chi	.	.
[4F	io	4D	lu-	.	.	4A	lu-	.	.
=61	=61	=61	=61	=61	=61	=61	=61	=61	=61
4F]	.	2G	-cen-	2C	-ti	1c	-cen-	1r	.
4E	de	.	.	.	.	.	.	.	.
4F	be-	2A	-ti,	2r	.	.	.	.	.
4.F	-gli oc-	.	.	.	.	.	.	.	.
.	.	4r	.	1r	.	2A	-ti,	4c	Co-
8EL	.	.	.	.	.	.	.	.	.
8D	.	4F	Co-	.	.	.	.	2d	-sì
8CJ	.	.	.	.	.	.	.	.	.
4BBnX	.	2G	-sì	.	.	4r	.	.	.
[4C	-chi	.	.	.	.	[4c	Co-	[4e	fu
=62	=62	=62	=62	=62	=62	=62	=62	=62	=62
4C]	.	2A	fu	0r	.	4c]	.	4e]	.
4D	lu-	.	.	.	.	4F	-sì	2f	io
2C	-cen-	2.c	io	.	.	2G	fu	.	.
.	.	.	.	.	.	.	.	4e	da
2FF	-ti	.	.	.	.	4A	io	2f	be-
.	.	4A	de	.	.	4c	de	.	.
2r	.	4BnX	be-	.	.	4d	be-	2g	-gli och-
.	.	[4c	-gli oc-	.	.	[4e	-gli oc-	.	.
=63	=63	=63	=63	=63	=63	=63	=63	=63	=63
1r	.	8cL]	.	1r	.	8eL]	.	4g	-chi
.	.	8B-i	.	.	.	16dL	.	.	.
.	.	.	.	.	.	16eJJ	.	.	.
.	.	8A	.	.	.	4f	.	2a	lu-
.	.	8GJ	.	.	.	.	.	.	.
.	.	4F#X	.	.	.	4d	-chi	.	.
.	.	2G	-chi	.	.	2d	lu-	4.g	-cen-
2r	.	.	.	4BnX	-ce	.	.	.	.
.	.	.	.	.	.	.	.	8f#i	.
.	.	4A	lu-	4c	sa-	4.c	-cen-	4f#i	.
4r	.	2G	-cen-	2d	-lu-	.	.	2g	-ti
.	.	.	.	.	.	8BnXi	.	.	.
4GG	Et	.	.	.	.	4BnXi	.	.	.
=64	=64	=64	=64	=64	=64	=64	=64	=64	=64
4AA	d’un	2E	-ti	4c	-to in-	4c	-ti	4r	.
2C	dol-	.	.	4.c	-sie-	4G	Et	4g	Et
.	.	2r	.	.	.	4G	d’un	4e	d’un
.	.	.	.	8B-yL	.	.	.	.	.
2D	-ce	.	.	8A	.	2d	dol-	4f#X	dol-
.	.	.	.	8GJ	.	.	.	.	.
.	.	1r	.	4A	.	.	.	4f#i	-ce
4E	sa-	.	.	4G	-me ag-	2c	-ce	4g	sa-
2F	-lu-	.	.	8FL	-giun-	.	.	2a	-lu-
.	.	.	.	8G	.	.	.	.	.
.	.	.	.	8A	.	4d	sa-	.	.
.	.	.	.	8B-yJ	.	.	.	.	.
=65	=65	=65	=65	=65	=65	=65	=65	=65	=65
2C	-to,	2r	.	8cL	.	2e-X	-lu-	4g	-to in-
.	.	.	.	8GJ	.	.	.	.	.
.	.	.	.	4.c	.	.	.	2g	-sie-
2r	.	2G	Et	.	.	2d	-to in-	.	.
.	.	.	.	8BnXi	.	.	.	.	.
.	.	.	.	4BnXi	.	.	.	4g	-me ag-
2C	Et	4E	d’un	4c	-to,	4c	-sie-	2g	-giun-
.	.	4E	dol-	4C	Et	4c	-me ag-	.	.
4AA	d’un	4E	-ce	4C	d’un	4.c	-giun-	2a	-to,
4AA	dol-	4A	sa-	4F	dol-	.	.	.	.
.	.	.	.	.	.	16B-yLL	.	.	.
.	.	.	.	.	.	16cJJ	.	.	.
=66	=66	=66	=66	=66	=66	=66	=66	=66	=66
4BBnX	-ce	4.G	-lu	4D	-ce	4d	.	0r	.
4C	sa-	.	.	4E	sa-	4c	-to,	.	.
.	.	8A	.	.	.	.	.	.	.
2D	-lu-	4B-y	.	4.F	-lu-	4r	.	.	.
.	.	4A	to in	.	.	4f	in-	.	.
.	.	.	.	16ELL	.	.	.	.	.
.	.	.	.	16DJJ	.	.	.	.	.
2C	-to in-	4.c	sie-	4G	.	4e-X	-sie-	.	.
.	.	.	.	4G	-to in-	4e-i	-me ag-	.	.
.	.	8B-y	.	.	.	.	.	.	.
4D	-sie-	4A	.	4F	-sie-	2d	-giun-	.	.
4GG	-me ag-	[4G	-me ag-	4B-y	-me ag-	.	.	.	.
=67	=67	=67	=67	=67	=67	=67	=67	=67	=67
4.AA	-giun-	4G]	.	2A	-giun-	1.c	-to,	1r	.
.	.	4.F	-giun-	.	.	.	.	.	.
8BB-y	.	.	.	.	.	.	.	.	.
2C	.	.	.	4G	-to,	.	.	.	.
.	.	8E	.	.	.	.	.	.	.
.	.	4E	.	4G	Et	.	.	.	.
4FF	-to,	4F	-to,	2.A	d’un	.	.	4r	.
4FF	Et	4C	Et	.	.	.	.	2f	Et
4FF	d’un	4C	d’un	.	.	2r	.	.	.
4GG	dol-	4G	dol-	4BnX	dol-	.	.	4d	d’un
=68	=68	=68	=68	=68	=68	=68	=68	=68	=68
4GG	-ce	4G	-ce	4BnX	-ce	1r	.	4d	dol-
4C	sa-	4G	sa-	4c	sa-	.	.	4e	-ce
4BB-y	-lu-	4.B-y	-lu-	2.d	-lu-	.	.	4f	sa-
4GG	-to in-	.	.	.	.	.	.	2g	-lu-
.	.	8B-y	-to in-	.	.	.	.	.	.
4GG	-sie-	4B-y	-sie-	.	.	2r	.	.	.
4BB-y	-me ag-	4B-y	-me ag-	4d	-to in-	.	.	2f	-to in-
2FF	-giun-	2A	-giun-	2c	-sie-	2c	Et	.	.
.	.	.	.	.	.	.	.	[4cc	-sie-
=69	=69	=69	=69	=69	=69	=69	=69	=69	=69
2FF	-to,	4F	-to,	4c	-me ag-	4A	d’un	8ccL]	.
.	.	.	.	.	.	.	.	8b-yJ	.
.	.	4F	Et	2d	-giun-	4A	dol-	2a	.
2r	.	4D	d’un	.	.	4BnX	-ce	.	.
.	.	4E	dol-	4G	-to,	2c	sa-	2g	-me ag-
2r	.	4F	-ce	4r	.	.	.	.	.
.	.	4F	sa-	4A	Et	2d	-lu-	4.f	-giun-
4r	.	2G	-lu-	4B-y	d’un	.	.	.	.
.	.	.	.	.	.	.	.	8e	.
4C	Et	.	.	4G	dol-	[4c	-to in-	4e	.
=70	=70	=70	=70	=70	=70	=70	=70	=70	=70
4FF	d’un	4F	-to,	4A	-ce	4c]	.	2f	-to,
2FF	dol-	4c	Et	4A	sa-	2f	-sie-	.	.
.	.	4A	d’un	4D	-lu-	.	.	2r	.
2GG	-ce	4BnX	dol-	4D	-to in-	2d	-me ag-	.	.
.	.	4Bni	-ce	4E	-sie-	.	.	2r	.
4AA	sa-	4c	sa-	4E	-me ag-	4.c	-giun-	.	.
2GG	-lu-	2d	-lu-	2G	-giun-	.	.	4r	.
.	.	.	.	.	.	8BnXi	.	.	.
.	.	.	.	.	.	4BnXi	.	[4g	Et
=71	=71	=71	=71	=71	=71	=71	=71	=71	=71
2.C	-to in-	4c	-to in-	2E	-to,	4c	-to,	4g]	.
.	.	4.c	-sie-	.	.	4G	Et	2e	d’un
.	.	.	.	2r	.	4G	d’un	.	.
.	.	8B-y	.	.	.	.	.	.	.
2D	-sie-	2A	.	.	.	2d	dol-	4f#X	dol-
.	.	.	.	1r	.	.	.	4f#i	-ce
4E	-me ag-	4G	-me ag-	.	.	2c	-ce	4g	sa-
2F	-giun-	8FL	-giun-	.	.	.	.	2a	-lu-
.	.	8G	.	.	.	.	.	.	.
.	.	8A	.	.	.	4d	sa-	.	.
.	.	8B-yJ	.	.	.	.	.	.	.
=72	=72	=72	=72	=72	=72	=72	=72	=72	=72
2C	-to,	8cL	.	2r	.	2e-X	-lu-	4g	-to in-
.	.	8GJ	.	.	.	.	.	.	.
.	.	4.c	.	.	.	.	.	2g	-sie-
2r	.	.	.	2G	Et	2d	-to in-	.	.
.	.	8BnXi	.	.	.	.	.	.	.
.	.	4BnXi	.	.	.	.	.	4g	-me ag-
2C	Et	4c	-to,	4E	d’un	4c	-sie-	2g	-giun-
.	.	4C	Et	4E	dol-	4c	-me ag-	.	.
4AA	d’un	4C	d’un	4E	-ce	4.c	-giun-	2a	-to,
4AA	dol-	4F	dol-	4A	sa-	.	.	.	.
.	.	.	.	.	.	16B-yLL	.	.	.
.	.	.	.	.	.	16cJJ	.	.	.
=73	=73	=73	=73	=73	=73	=73	=73	=73	=73
4BBnX	-ce	4D	-ce	4.G	-lu-	4d	.	0r	.
4C	sa-	4E	sa-	.	.	4c	-to,	.	.
.	.	.	.	8A	.	.	.	.	.
2D	-lu-	4.F	-lu-	4B-y	.	4r	.	.	.
.	.	.	.	4A	-to in-	4f	in-	.	.
.	.	16ELL	.	.	.	.	.	.	.
.	.	16DJJ	.	.	.	.	.	.	.
2C	-to in-	4G	.	4.c	-sie-	4e-X	-sie-	.	.
.	.	4G	-to in-	.	.	4e-i	-me ag-	.	.
.	.	.	.	8B-y	.	.	.	.	.
4D	-sie-	4F	-sie-	4A	.	2d	-giun-	.	.
4GG	-me ag-	4B-y	-me ag-	[4G	-me ag-	.	.	.	.
=74	=74	=74	=74	=74	=74	=74	=74	=74	=74
4.AA	-giun-	2A	-giun-	4G]	.	2c	-to,	1r	.
.	.	.	.	4.F	-giun-	.	.	.	.
8BB-y	.	.	.	.	.	.	.	.	.
2C	.	4.G	-to,	.	.	4r	.	.	.
.	.	.	.	8E	.	.	.	.	.
.	.	.	.	4E	.	2c	Et	.	.
.	.	16FLL	.	.	.	.	.	.	.
.	.	16GJJ	.	.	.	.	.	.	.
4FF	-to,	2A	.	4F	-to,	.	.	4r	.
4FF	Et	.	.	4C	Et	2A	d’un	2f	Et
4FF	d’un	2r	.	4C	d’un	.	.	.	.
4GG	dol-	.	.	4G	dol-	4BnX	dol-	4d	d’un
=75	=75	=75	=75	=75	=75	=75	=75	=75	=75
4GG	-ce	2r	.	4G	-ce	4BnX	-ce	4d	dol-
4C	sa-	.	.	4G	sa-	4c	sa-	4e	-ce
4BB-y	-lu-	4r	.	2B-y	-lu-	2d	-lu-	4f	sa-
4GG	-to in-	4G	Et	.	.	.	.	2g	-lu-
4C	-sie-	4E	d’un	4G	-to in-	4c	-to in-	.	.
4FF	-me ag-	2F	dol-	2A	-sie-	4.c	-sie-	2f	-to in-
8FFL	-giun-	.	.	.	.	.	.	.	.
8GG	.	.	.	.	.	8B-X	.	.	.
8AA	.	[4C	-ce	8GL	.	4A	.	[4cc	-sie-
8BB-yJ	.	.	.	8FJ	.	.	.	.	.
=76	=76	=76	=76	=76	=76	=76	=76	=76	=76
4C	.	4C]	.	4E	.	4G	-me ag-	8ccL]	.
.	.	.	.	.	.	.	.	8b-yJ	.
4FF	-to,	4C	sa-	4F	-me ag-	4.c	-giun-	2a	.
4r	.	4F	-lu-	2D	-giun-	.	.	.	.
.	.	.	.	.	.	8A	.	.	.
4GG	ag-	4D	-to in-	.	.	4BnX	.	2g	-me ag-
4.AA	-giun-	4A	-sie-	[1Cl	-to.	1c	.	.	.
.	.	4A	-me ag-	.	.	.	.	4.f	-giun-
8BB-y	.	.	.	.	.	.	.	.	.
2C	.	2G	-giun-	.	.	.	.	.	.
.	.	.	.	.	.	.	.	8e	.
.	.	.	.	.	.	.	.	4e	.
=77	=77	=77	=77	=77	=77	=77	=77	=77	=77
0FFl	-to.	0Fl	-to.	0C]	.	0Al	-to.	0fl	-to.
==	==	==	==	==	==	==	==	==	==
*-	*-	*-	*-	*-	*-	*-	*-	*-	*-
!!!system-decoration: s1,s2,s3,s4,s5
!!!RDF**kern: i = editorial accidental
!!!RDF**kern: l = terminal long
!!!ENC: Janosch Umbreit
!!!END: 2026/04/17
!!!EED: Benjamin Ory
!!!EEV: 2026/05/18
!!!YEC: Copyright 2026 Jessie Ann Owens and Scott Metcalfe, All Rights Reserved
!!!ONB: Translated from MusicXML on 2026/05/18
!!!verovio: header encoded
!!!header-left: Edited by Jessie Ann Owens and Scott Metcalfe (2026)\n
!!!header-right:
!!!header-center:
!!muse2ps: C^@{COM}^i2I150v75,75,75,75,110c122z18l2780t100